X:1
T:Joe Bane's
R:barndance
M:4/4
L:1/8
K:A
af|:eAAB c2BA|e2A2 Aaaf|eAAB c2BA|c2B2 B2Ac|
|eAAB c2BA|c2e2 a3f|e2ef ecAc|1 B2A2 Aaaf:|2 B2A2 Aefg|]
|:a2ab afea|f2fe fgaf|e2ef ecAB|c2B2 B2ce|
|a2ab afea|f2fe fgaf|e2ef ecAc|1 B2A2 Aefg:|2 B2A2 Aaaf|]